X: 1
T: Kusnacht
M: 3/4
L: 1/8
R: waltz
K: Amaj
|:E2e3E|E2d3E|ceedcB|{AB}A2F3E|
DEFGAB|{B}c2A2E2|DEFGAB|ABcB{cB}cA|
E2e3E|E2d3E|ceedcB|{AB}A2F3E|
DEFGAB|{B}c2A2E2|d2cABG|1 A3BAF:|2 A3Bcd||
|:e2a3g|gec3B|ABcdef|{ef}e2c2A2|
DEFGAB|{B}c2A2E2|DEFGAB|ABcB{cB}cd|
e2a3g|gec3B|ABcdef|{ef}e2c2A2|
DEFGAB|{B}c2A2E2|d2c2{Bc}B2|1 A3Bcd:|2 A6||
